src/main/resources/icons/DartIcons/icons/dart_test_dark.svg

<svg xmlns="http://www.w3.org/2000/svg" width="16" height="16" viewBox="0 0 16 16">
  <g fill="none" fill-rule="evenodd">
    <path fill="#70B4F4" d="M9.24965,9.25035 L6,12.5 L6.01707218,12.5170722 L4.2215,12.5262 L3.7115,12.0142 C3.3325,11.6362 3.3845,11.0172 3.3795,10.2712 L3.3735,3.3732 L4.3255,4.3262 L9.24965,9.25035 Z" opacity=".9"/>
    <path fill="#7CC1FD" d="M6.0172737,12.5172737 L8.5004,15.0004 L6.696,15.0004 L4.222,12.5264 L6.0172737,12.5172737 Z" opacity=".9"/>
    <path fill="#5070A8" d="M3.3792 10.2715L3.3732 3.3735 1.1912 7.9255C.9362 8.4685.8282 9.1325 1.5732 9.8765L3.7112 12.0145C3.3322 11.6355 3.3842 11.0175 3.3792 10.2715M15.0007 10.5177603L12.5 8 10.5 8 9.24969823 9.25030177 4.3267 4.3267 3.3737 3.3727 10.2717 3.3787C11.0177 3.3837 11.6357 3.3317 12.0147 3.7107L12.5257 4.2227 15.0007 6.6967 15.0007 10.5177603z" opacity=".9"/>
    <path fill="#7CC1FD" d="M10.2708,3.3789 L3.3738,3.3729 L7.9248,1.1909 C8.4688,0.9359 9.1328,0.8289 9.8768,1.5729 L12.0148,3.7109 C11.6358,3.3319 11.0168,3.3839 10.2708,3.3789" opacity=".9"/>
    <polygon fill="#62B543" points="13.75 10.75 17.25 14.25 10.25 14.25" transform="rotate(90 13.75 12.5)"/>
    <polygon fill="#F26522" points="9.25 10.75 12.75 14.25 5.75 14.25" transform="rotate(-90 9.25 12.5)"/>
  </g>
</svg>

<svg xmlns="http://www.w3.org/2000/svg" width="16" height="16" viewBox="0 0 16 16"><rect id="frame" width="16" height="16" fill="none"/><g fill="none" fill-rule="evenodd"><path fill="#70B4F4" d="M9.25 9.25L6 12.5l.017.017-1.796.01-.51-.513c-.378-.378-.326-.997-.331-1.743l-.006-6.898.951.953L9.25 9.25z" opacity=".9"/><path fill="#7CC1FD" d="M6.017 12.517L8.5 15H6.696l-2.474-2.474 1.795-.009z" opacity=".9"/><path fill="#5070A8" d="M3.38 10.271l-.007-6.898-2.182 4.553c-.255.543-.363 1.207.382 1.95l2.138 2.139c-.379-.38-.327-.998-.332-1.744m11.622.247L12.5 8h-2L9.25 9.25 4.327 4.327l-.953-.954 6.898.006c.746.005 1.364-.047 1.743.332l.51.512 2.476 2.474v3.82z" opacity=".9"/><path fill="#7CC1FD" d="M10.27 3.379l-6.896-.006 4.55-2.182c.545-.255 1.209-.362 1.953.382l2.138 2.138c-.38-.38-.998-.327-1.744-.332" opacity=".9"/><path fill="#62B543" d="M15.5 12.5L12 16V9z"/><path fill="#F26522" d="M7.5 12.5L11 9v7z"/></g></svg>
